dist/assets/images/icons/certificate.svg

<svg width="40" height="40" viewBox="0 0 40 40" fill="none" xmlns="http://www.w3.org/2000/svg">
<rect x="0.5" y="0.5" width="39" height="39" rx="19.5" fill="white"/>
<path d="M9.5 14.25C9.5 13.587 9.76339 12.9511 10.2322 12.4822C10.7011 12.0134 11.337 11.75 12 11.75H27C27.663 11.75 28.2989 12.0134 28.7678 12.4822C29.2366 12.9511 29.5 13.587 29.5 14.25V18.1825C29.1232 17.8452 28.7028 17.5601 28.25 17.335V14.25C28.25 13.9185 28.1183 13.6005 27.8839 13.3661C27.6495 13.1317 27.3315 13 27 13H12C11.6685 13 11.3505 13.1317 11.1161 13.3661C10.8817 13.6005 10.75 13.9185 10.75 14.25V24.25C10.75 24.5815 10.8817 24.8995 11.1161 25.1339C11.3505 25.3683 11.6685 25.5 12 25.5H21.0725C21.1675 25.6412 21.2688 25.7788 21.375 25.9113V26.75H12C11.337 26.75 10.7011 26.4866 10.2322 26.0178C9.76339 25.5489 9.5 24.913 9.5 24.25V14.25Z" fill="#101112"/>
<path d="M30.125 22.3753C30.125 23.5678 29.6488 24.6478 28.875 25.4378V30.5003C28.875 30.6164 28.8427 30.7302 28.7817 30.8289C28.7206 30.9277 28.6333 31.0074 28.5295 31.0594C28.4257 31.1113 28.3095 31.1332 28.1939 31.1228C28.0783 31.1124 27.9679 31.07 27.875 31.0003L26.125 29.6878C26.0168 29.6067 25.8852 29.5628 25.75 29.5628C25.6148 29.5628 25.4832 29.6067 25.375 29.6878L23.625 31.0003C23.5321 31.07 23.4217 31.1124 23.3061 31.1228C23.1905 31.1332 23.0743 31.1113 22.9705 31.0594C22.8667 31.0074 22.7794 30.9277 22.7183 30.8289C22.6573 30.7302 22.625 30.6164 22.625 30.5003V25.4378C22.1228 24.9253 21.7544 24.2971 21.5522 23.6086C21.3501 22.9201 21.3203 22.1925 21.4657 21.4898C21.611 20.7871 21.927 20.131 22.3857 19.5792C22.8444 19.0274 23.4318 18.5969 24.0961 18.3256C24.7604 18.0544 25.4813 17.9507 26.1951 18.0237C26.9089 18.0967 27.5938 18.3441 28.1895 18.7442C28.7851 19.1444 29.2732 19.6848 29.6108 20.318C29.9483 20.9513 30.1249 21.6578 30.125 22.3753ZM25.75 26.7503C25.0788 26.7503 24.4437 26.6003 23.875 26.3291V28.9378L25.4288 28.0053C25.5258 27.9472 25.6368 27.9165 25.75 27.9165C25.8632 27.9165 25.9742 27.9472 26.0712 28.0053L27.625 28.9378V26.3291C27.0391 26.6073 26.3986 26.7512 25.75 26.7503ZM25.75 25.5003C26.5788 25.5003 27.3737 25.1711 27.9597 24.585C28.5458 23.999 28.875 23.2041 28.875 22.3753C28.875 21.5465 28.5458 20.7517 27.9597 20.1656C27.3737 19.5796 26.5788 19.2503 25.75 19.2503C24.9212 19.2503 24.1263 19.5796 23.5403 20.1656C22.9542 20.7517 22.625 21.5465 22.625 22.3753C22.625 23.2041 22.9542 23.999 23.5403 24.585C24.1263 25.1711 24.9212 25.5003 25.75 25.5003Z" fill="#101112"/>
<path d="M13.25 16.125C13.25 15.9592 13.3158 15.8003 13.4331 15.6831C13.5503 15.5658 13.7092 15.5 13.875 15.5H25.125C25.2908 15.5 25.4497 15.5658 25.5669 15.6831C25.6842 15.8003 25.75 15.9592 25.75 16.125C25.75 16.2908 25.6842 16.4497 25.5669 16.5669C25.4497 16.6842 25.2908 16.75 25.125 16.75H13.875C13.7092 16.75 13.5503 16.6842 13.4331 16.5669C13.3158 16.4497 13.25 16.2908 13.25 16.125Z" fill="#101112"/>
<path d="M13.875 21.75C13.7092 21.75 13.5503 21.8158 13.4331 21.9331C13.3158 22.0503 13.25 22.2092 13.25 22.375C13.25 22.5408 13.3158 22.6997 13.4331 22.8169C13.5503 22.9342 13.7092 23 13.875 23H18.875C19.0408 23 19.1997 22.9342 19.3169 22.8169C19.4342 22.6997 19.5 22.5408 19.5 22.375C19.5 22.2092 19.4342 22.0503 19.3169 21.9331C19.1997 21.8158 19.0408 21.75 18.875 21.75H13.875Z" fill="#101112"/>
<rect x="0.5" y="0.5" width="39" height="39" rx="19.5" stroke="#C0C0C0"/>
</svg>

<svg width="40" height="40" fill="none" xmlns="http://www.w3.org/2000/svg"><rect x=".5" y=".5" width="39" height="39" rx="19.5" fill="#fff"/><path d="M9.5 14.25a2.5 2.5 0 012.5-2.5h15a2.5 2.5 0 012.5 2.5v3.933a5.635 5.635 0 00-1.25-.848V14.25A1.25 1.25 0 0027 13H12a1.25 1.25 0 00-1.25 1.25v10A1.25 1.25 0 0012 25.5h9.073c.095.141.196.279.302.411v.839H12a2.5 2.5 0 01-2.5-2.5v-10z" fill="#101112"/><path d="M30.125 22.375a4.36 4.36 0 01-1.25 3.063V30.5a.625.625 0 01-1 .5l-1.75-1.312a.625.625 0 00-.75 0L23.625 31a.625.625 0 01-1-.5v-5.062a4.375 4.375 0 117.5-3.063zM25.75 26.75a4.34 4.34 0 01-1.875-.42v2.608l1.554-.933a.625.625 0 01.642 0l1.554.933v-2.609a4.357 4.357 0 01-1.875.421zm0-1.25a3.125 3.125 0 100-6.25 3.125 3.125 0 000 6.25zm-12.5-9.375a.624.624 0 01.625-.625h11.25a.624.624 0 110 1.25h-11.25a.624.624 0 01-.625-.625zm.625 5.625a.624.624 0 100 1.25h5a.624.624 0 100-1.25h-5z" fill="#101112"/><rect x=".5" y=".5" width="39" height="39" rx="19.5" stroke="silver"/></svg>
